; generated by PrusaSlicer 2.4.1+win64 on 2025-04-22 at 18:46:30 UTC

; 

; external perimeters extrusion width = 0.45mm
; perimeters extrusion width = 0.45mm
; infill extrusion width = 0.45mm
; solid infill extrusion width = 0.45mm
; top infill extrusion width = 0.40mm
; first layer extrusion width = 0.42mm

M107
M190 S65 ; set bed temperature and wait for it to be reached
M104 S210 ; set temperature
;TYPE:Custom
G28 ; home all axes
G1 Z5 F5000 ; lift nozzle
M109 S210 ; set temperature and wait for it to be reached
G21 ; set units to millimeters
G90 ; use absolute coordinates
M82 ; use absolute distances for extrusion
G92 E0
; Filament gcode
M107
;LAYER_CHANGE
;Z:0.2
;HEIGHT:0.2
G1 Z.2 F720
G1 E-2 F2400
G92 E0
G1 X82.97 Y81.529 F18000
G1 E2 F2400
;TYPE:Skirt/Brim
;WIDTH:0.42
G1 X84.637 Y80.019 E2.07054
G1 X85.801 Y79.447 E2.1112
G1 X101.753 Y73.548 E2.64445
G1 X102.135 Y73.436 E2.65695
G1 X104.512 Y73.203 E2.73185
G1 X111.435 Y73.833 E2.9498
G1 X113.604 Y74.429 E3.02034
G1 X115.786 Y76.137 E3.10723
G1 X117.086 Y77.853 E3.17473
G1 X118.096 Y79.864 E3.24527
G1 X118.357 Y81.848 E3.30803
G1 X117.322 Y120.124 E4.50857
G1 X116.865 Y122.327 E4.57912
G1 X115.672 Y124.234 E4.64966
G1 X114.801 Y125.032 E4.68669
G1 X114.166 Y125.514 E4.71168
G1 X112.162 Y126.536 E4.78222
G1 X109.858 Y126.794 E4.8549
G1 X95.316 Y125.757 E5.31201
G1 X93.136 Y125.204 E5.38255
G1 X91.283 Y123.928 E5.45309
G1 X90.421 Y122.868 E5.49593
G1 X88.876 Y120.488 E5.58491
G1 X85.147 Y113.232 E5.84069
G1 X84.024 Y109.939 E5.94977
G1 X83.74 Y108.572 E5.99356
G1 X81.764 Y87.849 E6.64625
G1 X81.65 Y85.757 E6.71195
G1 X81.931 Y83.525 E6.78249
G1 X82.946 Y81.576 E6.85138
G1 E4.85138
G92 E0
G1 X88.941 Y86.062 F18000
G1 E2 F2400
;TYPE:Perimeter
G1 X94.922 Y86.372 E2.18776
G1 X102.591 Y86.861 E2.42871
G1 X102.329 Y85.117 E2.484
G1 X101.923 Y83.825 E2.52645
G1 X101.925 Y83.682 E2.53093
G1 X102.08 Y83.281 E2.54442
G1 X102.092 Y83.099 E2.55013
G1 X102.167 Y82.978 E2.5546
G1 X102.583 Y82.672 E2.57078
G1 X103.087 Y82.038 E2.59618
G1 X103.527 Y80.992 E2.63174
G1 X103.637 Y80.583 E2.64505
G1 X103.843 Y80.192 E2.6589
G1 X103.868 Y80.185 E2.65971
G1 X104.09 Y80.305 E2.66761
G1 X105.001 Y81.518 E2.71519
G1 X105.782 Y81.546 E2.73969
G1 X105.995 Y81.492 E2.74657
G1 X107.014 Y81.822 E2.78017
G1 X108.114 Y82.322 E2.81805
G1 X108.511 Y82.373 E2.83058
G1 X109.045 Y82.302 E2.84748
G1 X109.931 Y81.974 E2.8771
G1 X111.324 Y82.174 E2.92121
G1 X109.709 Y94.316 E3.30525
G1 X110.098 Y108.368 E3.74602
G1 X110.353 Y119.665 E4.10031
G1 X110.117 Y119.844 E4.10961
G1 X101.201 Y119.163 E4.38998
G1 X96.512 Y118.857 E4.53732
G1 X96.083 Y118.125 E4.56391
G1 X95.412 Y117.661 E4.5895
G1 X95.251 Y117.462 E4.59751
G1 X95.227 Y117.097 E4.60899
G1 X94.874 Y116.623 E4.62752
G1 X94.722 Y116.569 E4.63257
G1 X94.674 Y116.364 E4.63916
G1 X94.612 Y114.999 E4.68202
G1 X94.167 Y113.901 E4.71915
G1 X93.498 Y113.641 E4.74166
G1 X93.449 Y113.588 E4.74391
G1 X93.436 Y113.24 E4.75482
G1 X92.994 Y112.556 E4.78038
G1 X92.434 Y112.036 E4.80433
G1 X92.385 Y111.9 E4.80885
G1 X92.6 Y111.493 E4.82328
G1 X92.509 Y110.9 E4.84208
G1 X92.085 Y110.518 E4.85997
G1 X91.66 Y110.354 E4.87426
G1 X91.768 Y109.971 E4.88674
G1 X91.675 Y109.109 E4.91391
G1 X91.251 Y108.39 E4.94011
G1 X90.877 Y108.08 E4.95533
G1 X90.948 Y108.022 E4.95823
G1 X90.939 Y107.249 E4.98245
G1 X90.768 Y107.069 E4.99025
G1 X91.05 Y106.896 E5.00062
G1 X91.258 Y106.014 E5.02905
G1 X91.093 Y105.308 E5.05179
G1 X91.124 Y105.039 E5.06027
G1 X91.416 Y104.68 E5.07478
G1 X91.6 Y104.261 E5.08913
G1 X91.342 Y102.681 E5.13932
G1 X91.382 Y102.42 E5.14759
G1 X91.753 Y102.184 E5.16138
G1 X91.833 Y101.315 E5.18872
G1 X91.564 Y100.653 E5.21114
G1 X91.566 Y100.622 E5.21212
G1 X91.905 Y100.377 E5.22525
G1 X91.905 Y99.552 E5.25111
G1 X91.637 Y99.308 E5.26248
G1 X91.734 Y99.189 E5.26727
G1 X91.928 Y98.627 E5.28593
G1 X91.928 Y98.273 E5.29703
G1 X92.112 Y97.985 E5.30774
G1 X92.587 Y97.677 E5.32549
G1 X93.092 Y97.084 E5.34994
G1 X93.211 Y96.382 E5.37226
G1 X93.112 Y95.817 E5.39024
G1 X92.295 Y94.809 E5.4309
G1 X92.205 Y94.744 E5.4344
G1 X92.205 Y94.21 E5.45112
G1 X91.643 Y93.343 E5.48353
G1 X90.763 Y92.576 E5.52014
G1 X90.293 Y91.782 E5.54906
G1 X90.056 Y90.694 E5.58397
G1 X89.714 Y89.81 E5.61368
G1 X89.426 Y89.519 E5.62653
G1 X89.343 Y89.167 E5.63786
G1 X89.387 Y88.254 E5.66651
G1 X89.042 Y87.368 E5.69633
G1 X88.718 Y87.282 E5.70683
G1 X89.014 Y86.38 E5.7366
G1 X88.953 Y86.113 E5.74518
G1 X88.312 Y85.652 F18000
;TYPE:External perimeter
G1 F2400
G1 X94.943 Y85.996 E5.95339
G1 X102.148 Y86.455 E6.17976
G1 X101.96 Y85.202 E6.21948
G1 X101.545 Y83.88 E6.26291
G1 X101.549 Y83.609 E6.2714
G1 X101.708 Y83.199 E6.2852
G1 X101.721 Y82.98 E6.29208
G1 X101.886 Y82.717 E6.30181
G1 X102.319 Y82.399 E6.31866
G1 X102.759 Y81.844 E6.34086
G1 X103.169 Y80.87 E6.374
G1 X103.284 Y80.444 E6.38783
G1 X103.564 Y79.914 E6.40663
G1 X103.644 Y79.858 E6.4097
G1 X103.911 Y79.779 E6.41841
G1 X104.342 Y80.012 E6.43377
G1 X105.195 Y81.147 E6.47829
G1 X105.742 Y81.167 E6.49546
G1 X106.008 Y81.099 E6.50406
G1 X107.151 Y81.47 E6.54174
G1 X108.219 Y81.955 E6.57851
G1 X108.51 Y81.993 E6.58772
G1 X108.953 Y81.934 E6.60175
G1 X109.89 Y81.587 E6.63305
G1 X111.746 Y81.854 E6.69187
G1 X110.087 Y94.335 E7.08665
G1 X110.475 Y108.359 E7.5265
G1 X110.735 Y119.849 E7.88687
G1 X110.231 Y120.231 E7.90669
G1 X101.174 Y119.54 E8.19148
G1 X95.994 Y119.201 E8.35425
G1 X96.114 Y118.923 E8.36373
G1 X95.8 Y118.388 E8.38318
G1 X95.152 Y117.94 E8.40786
G1 X94.883 Y117.606 E8.42132
G1 X94.858 Y117.233 E8.43305
G1 X94.64 Y116.94 E8.44449
G1 X94.403 Y116.856 E8.45239
G1 X94.299 Y116.417 E8.46654
G1 X94.238 Y115.08 E8.50849
G1 X93.879 Y114.194 E8.53849
G1 X93.281 Y113.961 E8.5586
G1 X93.077 Y113.743 E8.56796
G1 X93.063 Y113.358 E8.58002
G1 X92.703 Y112.8 E8.60085
G1 X92.11 Y112.25 E8.6262
G1 X91.974 Y111.872 E8.63879
G1 X92.208 Y111.427 E8.65454
G1 X92.156 Y111.09 E8.66523
G1 X91.884 Y110.845 E8.67672
G1 X91.21 Y110.585 E8.69937
G1 X91.159 Y110.53 E8.70172
G1 X91.264 Y110.369 E8.70777
G1 X91.386 Y109.939 E8.72178
G1 X91.309 Y109.231 E8.74411
G1 X90.96 Y108.638 E8.76568
G1 X90.408 Y108.182 E8.78811
G1 X90.343 Y108.029 E8.79332
G1 X90.569 Y107.845 E8.80248
G1 X90.564 Y107.402 E8.81637
G1 X90.318 Y107.143 E8.82756
G1 X90.426 Y106.836 E8.83775
G1 X90.719 Y106.657 E8.84852
G1 X90.871 Y106.014 E8.86925
G1 X90.71 Y105.329 E8.89128
G1 X90.762 Y104.886 E8.90526
G1 X91.091 Y104.481 E8.92162
G1 X91.21 Y104.211 E8.93088
G1 X90.961 Y102.683 E8.97944
G1 X91.036 Y102.194 E8.99492
G1 X91.395 Y101.965 E9.00828
G1 X91.449 Y101.372 E9.02695
G1 X91.182 Y100.716 E9.04916
G1 X91.199 Y100.421 E9.05843
G1 X91.528 Y100.184 E9.07113
G1 X91.528 Y99.718 E9.08573
G1 X91.192 Y99.412 E9.09999
G1 X91.177 Y99.275 E9.1043
G1 X91.399 Y99.003 E9.11533
G1 X91.55 Y98.564 E9.1299
G1 X91.55 Y98.162 E9.14248
G1 X91.838 Y97.713 E9.15921
G1 X92.335 Y97.391 E9.17779
G1 X92.738 Y96.918 E9.19725
G1 X92.829 Y96.383 E9.21428
G1 X92.757 Y95.979 E9.22715
G1 X92.034 Y95.085 E9.26319
G1 X91.881 Y94.975 E9.26909
G1 X91.828 Y94.837 E9.27373
G1 X91.828 Y94.322 E9.28988
G1 X91.355 Y93.593 E9.31713
G1 X90.469 Y92.82 E9.35399
G1 X89.938 Y91.921 E9.38672
G1 X89.694 Y90.803 E9.42261
G1 X89.391 Y90.02 E9.44895
G1 X89.083 Y89.708 E9.46267
G1 X88.964 Y89.202 E9.47898
G1 X89.007 Y88.316 E9.50677
G1 X88.76 Y87.683 E9.52807
G1 X88.369 Y87.58 E9.54074
G1 X88.327 Y87.264 E9.55074
G1 X88.623 Y86.362 E9.5805
G1 X88.51 Y85.868 E9.59637
G1 X88.347 Y85.69 E9.60394
G1 X88.631 Y85.794 F18000
G1 E7.60394 F2400
G92 E0
G1 X93.358 Y97.208 F18000
G1 E2 F2400
;TYPE:Solid infill
;WIDTH:0.420963
G1 X93.498 Y96.381 E2.02637
G1 X93.378 Y95.696 E2.04823
G1 X92.488 Y94.599 E2.09261
G1 X92.488 Y94.127 E2.10747
G1 X91.859 Y93.156 E2.14384
G1 X90.983 Y92.393 E2.18035
G1 X90.56 Y91.677 E2.20648
G1 X90.328 Y90.612 E2.24074
G1 X89.956 Y89.654 E2.27306
G1 X89.683 Y89.377 E2.28529
G1 X89.628 Y89.141 E2.2929
G1 X89.673 Y88.208 E2.32227
G1 X89.253 Y87.132 E2.35857
G1 X89.08 Y87.086 E2.3642
G1 X89.307 Y86.393 E2.3871
G1 X89.3 Y86.364 E2.38807
G1 X94.905 Y86.654 E2.5645
G1 X102.922 Y87.165 E2.81702
G1 X102.605 Y85.053 E2.88416
G1 X102.207 Y83.783 E2.92599
G1 X102.207 Y83.737 E2.92746
G1 X102.36 Y83.342 E2.94077
G1 X102.378 Y83.174 E2.94607
G1 X102.781 Y82.878 E2.96178
G1 X103.333 Y82.183 E2.98966
G1 X103.795 Y81.084 E3.02714
G1 X103.902 Y80.687 E3.04008
G1 X103.952 Y80.592 E3.04346
G1 X104.856 Y81.795 E3.09079
G1 X105.813 Y81.83 E3.12087
G1 X105.986 Y81.786 E3.12648
G1 X106.912 Y82.086 E3.15709
G1 X108.036 Y82.597 E3.1959
G1 X108.511 Y82.658 E3.21097
G1 X109.114 Y82.578 E3.23007
G1 X109.962 Y82.264 E3.25849
G1 X111.006 Y82.414 E3.29167
G1 X109.426 Y94.301 E3.6686
G1 X109.815 Y108.375 E4.11118
G1 X110.067 Y119.527 E4.46183
G1 X110.032 Y119.554 E4.46323
G1 X101.221 Y118.881 E4.741
G1 X96.68 Y118.584 E4.88404
G1 X96.296 Y117.928 E4.90796
G1 X95.606 Y117.452 E4.93429
G1 X95.527 Y117.354 E4.93823
G1 X95.503 Y116.995 E4.94955
G1 X95.05 Y116.385 E4.97345
G1 X94.962 Y116.354 E4.97638
G1 X94.892 Y114.937 E5.02095
G1 X94.383 Y113.682 E5.06353
G1 X93.726 Y113.426 E5.0857
G1 X93.716 Y113.152 E5.09431
G1 X93.212 Y112.373 E5.12349
G1 X92.705 Y111.901 E5.14527
G1 X92.893 Y111.542 E5.15802
G1 X92.773 Y110.758 E5.18295
G1 X92.236 Y110.273 E5.20571
G1 X92.002 Y110.183 E5.21357
G1 X92.056 Y109.995 E5.21969
G1 X91.95 Y109.018 E5.25058
G1 X91.469 Y108.203 E5.28032
G1 X91.231 Y108.006 E5.29005
G1 X91.214 Y107.128 E5.31766
G1 X91.299 Y107.076 E5.32078
G1 X91.549 Y106.014 E5.35509
G1 X91.379 Y105.291 E5.37842
G1 X91.395 Y105.153 E5.38278
G1 X91.659 Y104.828 E5.39594
G1 X91.893 Y104.298 E5.41416
G1 X91.629 Y102.679 E5.4657
G1 X91.642 Y102.59 E5.46855
G1 X92.022 Y102.348 E5.48271
G1 X92.121 Y101.273 E5.51664
G1 X91.9 Y100.729 E5.53508
G1 X92.188 Y100.522 E5.54624
G1 X92.188 Y99.427 E5.58065
G1 X92.008 Y99.263 E5.58831
G1 X92.21 Y98.674 E5.60788
G1 X92.21 Y98.355 E5.61791
G1 X92.317 Y98.189 E5.62412
G1 X92.775 Y97.892 E5.64128
G1 X93.324 Y97.248 E5.66789
G1 X93.713 Y97.374 F18000
G1 F2400
G1 X93.882 Y96.379 E5.69959
G1 X93.733 Y95.534 E5.72657
G1 X92.866 Y94.464 E5.76987
G1 X92.866 Y94.015 E5.78398
G1 X92.147 Y92.906 E5.82552
G1 X91.277 Y92.148 E5.86179
G1 X90.917 Y91.537 E5.88408
G1 X90.691 Y90.503 E5.91735
G1 X90.281 Y89.444 E5.95306
G1 X90.027 Y89.187 E5.96441
G1 X90.008 Y89.106 E5.96702
G1 X90.054 Y88.145 E5.99725
G1 X89.511 Y86.753 E6.04423
G1 X94.883 Y87.032 E6.21334
G1 X103.366 Y87.572 E6.48051
G1 X102.975 Y84.968 E6.56329
G1 X102.599 Y83.771 E6.60271
G1 X102.756 Y83.366 E6.61638
G1 X103.046 Y83.153 E6.62769
G1 X103.661 Y82.378 E6.65879
G1 X104.077 Y81.388 E6.69255
G1 X104.663 Y82.167 E6.72318
G1 X105.853 Y82.21 E6.76063
G1 X105.973 Y82.179 E6.76451
G1 X106.775 Y82.439 E6.79102
G1 X107.931 Y82.965 E6.83095
G1 X108.512 Y83.04 E6.84936
G1 X109.205 Y82.947 E6.87134
G1 X110.003 Y82.652 E6.89807
G1 X110.582 Y82.735 E6.91647
G1 X109.047 Y94.281 E7.2826
G1 X109.437 Y108.385 E7.7261
G1 X109.681 Y119.148 E8.06453
G1 X101.248 Y118.504 E8.33039
G1 X96.905 Y118.22 E8.46719
G1 X96.579 Y117.664 E8.48744
G1 X95.895 Y117.192 E8.51356
G1 X95.873 Y116.859 E8.52406
G1 X95.324 Y116.12 E8.55299
G1 X95.267 Y114.855 E8.59278
G1 X94.672 Y113.389 E8.64252
G1 X94.095 Y113.164 E8.66201
G1 X94.09 Y113.034 E8.66608
G1 X93.504 Y112.128 E8.70002
G1 X93.174 Y111.821 E8.71418
G1 X93.286 Y111.608 E8.72176
G1 X93.126 Y110.568 E8.75483
G1 X92.43 Y109.938 E8.78434
G1 X92.317 Y108.897 E8.81727
G1 X91.762 Y107.954 E8.85166
G1 X91.607 Y107.827 E8.85796
G1 X91.601 Y107.334 E8.87344
G1 X91.63 Y107.316 E8.87452
G1 X91.937 Y106.014 E8.91657
G1 X91.768 Y105.294 E8.93982
G1 X91.985 Y105.027 E8.95062
G1 X92.284 Y104.348 E8.97396
G1 X92.03 Y102.791 E9.02353
G1 X92.382 Y102.567 E9.03665
G1 X92.506 Y101.216 E9.0793
G1 X92.362 Y100.862 E9.09129
G1 X92.566 Y100.715 E9.09918
G1 X92.566 Y99.26 E9.14492
G1 X92.446 Y99.151 E9.15002
G1 X92.588 Y98.737 E9.16377
G1 X92.588 Y98.463 E9.17239
G1 X93.027 Y98.179 E9.18881
G1 X93.679 Y97.413 E9.22043
G1 X94.069 Y97.539 F18000
G1 F2400
G1 X94.266 Y96.378 E9.25746
G1 X94.088 Y95.372 E9.28957
G1 X93.244 Y94.33 E9.33174
G1 X93.244 Y93.903 E9.34515
G1 X92.435 Y92.656 E9.39188
G1 X91.572 Y91.903 E9.42789
G1 X91.273 Y91.397 E9.44636
G1 X91.054 Y90.394 E9.47864
G1 X90.605 Y89.234 E9.51773
G1 X90.391 Y89.017 E9.52731
G1 X90.436 Y88.083 E9.55671
G1 X90.076 Y87.161 E9.58782
G1 X94.862 Y87.409 E9.73846
G1 X103.809 Y87.979 E10.02028
G1 X103.344 Y84.883 E10.11871
G1 X102.999 Y83.784 E10.1549
G1 X103.069 Y83.605 E10.16094
G1 X103.31 Y83.427 E10.17037
G1 X103.989 Y82.572 E10.20469
G1 X104.17 Y82.141 E10.21939
G1 X104.469 Y82.538 E10.23499
G1 X105.894 Y82.589 E10.27982
G1 X105.96 Y82.572 E10.28197
G1 X106.638 Y82.792 E10.30437
G1 X107.827 Y83.332 E10.34541
G1 X108.513 Y83.421 E10.36717
G1 X109.297 Y83.316 E10.39203
G1 X110.166 Y82.994 E10.42117
G1 X108.669 Y94.261 E10.77845
G1 X109.059 Y108.394 E11.22288
G1 X109.293 Y118.739 E11.54816
G1 X101.274 Y118.127 E11.80096
G1 X97.13 Y117.856 E11.93152
G1 X96.863 Y117.401 E11.9481
G1 X96.26 Y116.985 E11.97113
G1 X96.243 Y116.723 E11.97938
G1 X95.697 Y115.987 E12.00817
G1 X95.642 Y114.774 E12.04637
G1 X94.961 Y113.096 E12.10327
G1 X94.451 Y112.897 E12.12048
G1 X93.796 Y111.883 E12.15844
G1 X93.697 Y111.791 E12.1627
G1 X93.479 Y110.377 E12.20765
G1 X92.79 Y109.754 E12.23685
G1 X92.684 Y108.775 E12.26782
G1 X92.054 Y107.705 E12.30685
G1 X91.983 Y107.647 E12.30973
G1 X91.981 Y107.477 E12.31506
G1 X92.325 Y106.014 E12.3623
G1 X92.178 Y105.388 E12.38252
G1 X92.31 Y105.226 E12.38908
G1 X92.675 Y104.397 E12.41754
G1 X92.443 Y102.976 E12.46282
G1 X92.741 Y102.786 E12.47393
G1 X92.891 Y101.158 E12.5253
G1 X92.824 Y100.995 E12.53085
G1 X92.944 Y100.909 E12.53548
G1 X92.944 Y99.094 E12.59254
G1 X92.884 Y99.039 E12.59508
G1 X92.966 Y98.8 E12.60301
G1 X92.966 Y98.669 E12.60715
G1 X93.279 Y98.467 E12.61884
G1 X94.035 Y97.579 E12.65548
G1 X94.424 Y97.705 F18000
G1 F2400
G1 X94.649 Y96.377 E12.69784
G1 X94.444 Y95.21 E12.73508
G1 X93.622 Y94.196 E12.77611
G1 X93.622 Y93.791 E12.78883
G1 X92.724 Y92.406 E12.84073
G1 X91.866 Y91.658 E12.87649
G1 X91.629 Y91.257 E12.89113
G1 X91.417 Y90.284 E12.92243
G1 X90.929 Y89.025 E12.9649
G1 X90.776 Y88.87 E12.97174
G1 X90.817 Y88.021 E12.99846
G1 X90.641 Y87.569 E13.0137
G1 X94.84 Y87.787 E13.14587
G1 X104.252 Y88.386 E13.44235
G1 X103.714 Y84.797 E13.55642
G1 X103.408 Y83.824 E13.58848
G1 X103.575 Y83.702 E13.59499
G1 X104.206 Y82.907 E13.62689
G1 X105.96 Y82.97 E13.68207
G1 X106.501 Y83.145 E13.69994
G1 X107.722 Y83.7 E13.7421
G1 X108.514 Y83.802 E13.7672
G1 X109.389 Y83.685 E13.79494
G1 X109.709 Y83.567 E13.80567
G1 X108.29 Y94.241 E14.14417
G1 X108.681 Y108.404 E14.58952
G1 X108.906 Y118.331 E14.90165
G1 X101.301 Y117.75 E15.14139
G1 X97.355 Y117.492 E15.26572
G1 X97.147 Y117.137 E15.27863
G1 X96.625 Y116.777 E15.29856
G1 X96.612 Y116.587 E15.30456
G1 X96.069 Y115.855 E15.33321
G1 X96.016 Y114.692 E15.36981
G1 X95.251 Y112.803 E15.43387
G1 X94.702 Y112.589 E15.45237
G1 X94.05 Y111.603 E15.48953
G1 X93.832 Y110.187 E15.53457
G1 X93.15 Y109.571 E15.56348
G1 X93.051 Y108.653 E15.59248
G1 X92.366 Y107.491 E15.63488
G1 X92.714 Y106.014 E15.68256
G1 X92.589 Y105.483 E15.69974
G1 X92.636 Y105.425 E15.70207
G1 X93.066 Y104.447 E15.73565
G1 X92.856 Y103.161 E15.77662
G1 X93.1 Y103.005 E15.78573
G1 X93.273 Y101.138 E15.84466
G1 X93.322 Y101.102 E15.84658
G1 X93.322 Y98.889 E15.91615
G1 X93.531 Y98.754 E15.92396
G1 X94.39 Y97.745 E15.96562
G1 X94.779 Y97.871 F18000
G1 F2400
G1 X95.033 Y96.376 E16.0133
G1 X94.799 Y95.048 E16.05568
G1 X94 Y94.062 E16.09557
G1 X94 Y93.679 E16.10759
G1 X93.012 Y92.155 E16.16468
G1 X92.161 Y91.413 E16.20019
G1 X91.986 Y91.117 E16.211
G1 X91.78 Y90.175 E16.2413
G1 X91.253 Y88.815 E16.28716
G1 X91.162 Y88.722 E16.29125
G1 X91.198 Y87.976 E16.31473
G1 X94.818 Y88.164 E16.42868
G1 X104.696 Y88.793 E16.73981
G1 X104.083 Y84.712 E16.86953
G1 X103.849 Y83.965 E16.89415
G1 X104.384 Y83.292 E16.92118
G1 X105.894 Y83.346 E16.96869
G1 X106.364 Y83.498 E16.98424
G1 X107.617 Y84.068 E17.0275
G1 X108.515 Y84.183 E17.05595
G1 X109.259 Y84.084 E17.07954
G1 X107.911 Y94.222 E17.40101
