; generated by PrusaSlicer 2.4.1+win64 on 2025-04-22 at 18:44:12 UTC

; 

; external perimeters extrusion width = 0.45mm
; perimeters extrusion width = 0.45mm
; infill extrusion width = 0.45mm
; solid infill extrusion width = 0.45mm
; top infill extrusion width = 0.40mm
; first layer extrusion width = 0.42mm

M107
M190 S65 ; set bed temperature and wait for it to be reached
M104 S210 ; set temperature
;TYPE:Custom
G28 ; home all axes
G1 Z5 F5000 ; lift nozzle
M109 S210 ; set temperature and wait for it to be reached
G21 ; set units to millimeters
G90 ; use absolute coordinates
M82 ; use absolute distances for extrusion
G92 E0
; Filament gcode
M107
;LAYER_CHANGE
;Z:0.2
;HEIGHT:0.2
G1 Z.2 F720
G1 E-2 F2400
G92 E0
G1 X82.97 Y81.529 F18000
G1 E2 F2400
;TYPE:Skirt/Brim
;WIDTH:0.42
G1 X84.637 Y80.019 E2.07054
G1 X85.801 Y79.447 E2.1112
G1 X101.753 Y73.548 E2.64445
G1 X102.135 Y73.436 E2.65695
G1 X104.512 Y73.203 E2.73185
G1 X111.435 Y73.833 E2.9498
G1 X113.604 Y74.429 E3.02034
G1 X115.786 Y76.137 E3.10723
G1 X117.086 Y77.853 E3.17473
G1 X118.096 Y79.864 E3.24527
G1 X118.357 Y81.848 E3.30803
G1 X117.322 Y120.124 E4.50857
G1 X116.865 Y122.327 E4.57912
G1 X115.672 Y124.234 E4.64966
G1 X114.801 Y125.032 E4.68669
G1 X114.166 Y125.514 E4.71168
G1 X112.162 Y126.536 E4.78222
G1 X109.858 Y126.794 E4.8549
G1 X95.316 Y125.757 E5.31201
G1 X93.136 Y125.204 E5.38255
G1 X91.283 Y123.928 E5.45309
G1 X90.421 Y122.868 E5.49593
G1 X88.876 Y120.488 E5.58491
G1 X85.147 Y113.232 E5.84069
G1 X84.024 Y109.939 E5.94977
G1 X83.74 Y108.572 E5.99356
G1 X81.764 Y87.849 E6.64625
G1 X81.65 Y85.757 E6.71195
G1 X81.931 Y83.525 E6.78249
G1 X82.946 Y81.576 E6.85138
G1 E4.85138
G92 E0
G1 X88.941 Y86.062 F18000
G1 E2 F2400
;TYPE:Perimeter
G1 X94.922 Y86.372 E2.18776
G1 X102.591 Y86.861 E2.42871
G1 X102.329 Y85.117 E2.484
G1 X101.923 Y83.825 E2.52645
G1 X101.925 Y83.682 E2.53093
G1 X102.08 Y83.281 E2.54442
G1 X102.092 Y83.099 E2.55013
G1 X102.167 Y82.978 E2.5546
G1 X102.583 Y82.672 E2.57078
G1 X103.087 Y82.038 E2.59618
G1 X103.527 Y80.992 E2.63174
G1 X103.637 Y80.583 E2.64505
G1 X103.843 Y80.192 E2.6589
G1 X103.868 Y80.185 E2.65971
G1 X104.09 Y80.305 E2.66761
G1 X105.001 Y81.518 E2.71519
G1 X105.782 Y81.546 E2.73969
G1 X105.995 Y81.492 E2.74657
G1 X107.014 Y81.822 E2.78017
G1 X108.114 Y82.322 E2.81805
G1 X108.511 Y82.373 E2.83058
G1 X109.045 Y82.302 E2.84748
G1 X109.931 Y81.974 E2.8771
G1 X111.324 Y82.174 E2.92121
G1 X109.709 Y94.316 E3.30525
G1 X110.098 Y108.368 E3.74602
G1 X110.353 Y119.665 E4.10031
G1 X110.117 Y119.844 E4.10961
G1 X101.201 Y119.163 E4.38998
G1 X96.512 Y118.857 E4.53732
G1 X96.083 Y118.125 E4.56391
G1 X95.412 Y117.661 E4.5895
G1 X95.251 Y117.462 E4.59751
G1 X95.227 Y117.097 E4.60899
G1 X94.874 Y116.623 E4.62752
G1 X94.722 Y116.569 E4.63257
G1 X94.674 Y116.364 E4.63916
G1 X94.612 Y114.999 E4.68202
G1 X94.167 Y113.901 E4.71915
G1 X93.498 Y113.641 E4.74166
G1 X93.449 Y113.588 E4.74391
G1 X93.436 Y113.24 E4.75482
G1 X92.994 Y112.556 E4.78038
G1 X92.434 Y112.036 E4.80433
G1 X92.385 Y111.9 E4.80885
G1 X92.6 Y111.493 E4.82328
G1 X92.509 Y110.9 E4.84208
G1 X92.085 Y110.518 E4.85997
G1 X91.66 Y110.354 E4.87426
G1 X91.768 Y109.971 E4.88674
G1 X91.675 Y109.109 E4.91391
G1 X91.251 Y108.39 E4.94011
G1 X90.877 Y108.08 E4.95533
G1 X90.948 Y108.022 E4.95823
G1 X90.939 Y107.249 E4.98245
G1 X90.768 Y107.069 E4.99025
G1 X91.05 Y106.896 E5.00062
G1 X91.258 Y106.014 E5.02905
G1 X91.093 Y105.308 E5.05179
G1 X91.124 Y105.039 E5.06027
G1 X91.416 Y104.68 E5.07478
G1 X91.6 Y104.261 E5.08913
G1 X91.342 Y102.681 E5.13932
G1 X91.382 Y102.42 E5.14759
G1 X91.753 Y102.184 E5.16138
G1 X91.833 Y101.315 E5.18872
G1 X91.564 Y100.653 E5.21114
G1 X91.566 Y100.622 E5.21212
G1 X91.905 Y100.377 E5.22525
G1 X91.905 Y99.552 E5.25111
G1 X91.637 Y99.308 E5.26248
G1 X91.734 Y99.189 E5.26727
G1 X91.928 Y98.627 E5.28593
G1 X91.928 Y98.273 E5.29703
G1 X92.112 Y97.985 E5.30774
G1 X92.587 Y97.677 E5.32549
G1 X93.092 Y97.084 E5.34994
G1 X93.211 Y96.382 E5.37226
G1 X93.112 Y95.817 E5.39024
G1 X92.295 Y94.809 E5.4309
G1 X92.205 Y94.744 E5.4344
G1 X92.205 Y94.21 E5.45112
G1 X91.643 Y93.343 E5.48353
G1 X90.763 Y92.576 E5.52014
G1 X90.293 Y91.782 E5.54906
G1 X90.056 Y90.694 E5.58397
G1 X89.714 Y89.81 E5.61368
G1 X89.426 Y89.519 E5.62653
G1 X89.343 Y89.167 E5.63786
G1 X89.387 Y88.254 E5.66651
G1 X89.042 Y87.368 E5.69633
G1 X88.718 Y87.282 E5.70683
G1 X89.014 Y86.38 E5.7366
G1 X88.953 Y86.113 E5.74518
G1 X88.312 Y85.652 F18000
;TYPE:External perimeter
G1 F2400
G1 X94.943 Y85.996 E5.95339
G1 X102.148 Y86.455 E6.17976
G1 X101.96 Y85.202 E6.21948
G1 X101.545 Y83.88 E6.26291
G1 X101.549 Y83.609 E6.2714
G1 X101.708 Y83.199 E6.2852
G1 X101.721 Y82.98 E6.29208
G1 X101.886 Y82.717 E6.30181
G1 X102.319 Y82.399 E6.31866
G1 X102.759 Y81.844 E6.34086
G1 X103.169 Y80.87 E6.374
G1 X103.284 Y80.444 E6.38783
G1 X103.564 Y79.914 E6.40663
G1 X103.644 Y79.858 E6.4097
G1 X103.911 Y79.779 E6.41841
G1 X104.342 Y80.012 E6.43377
G1 X105.195 Y81.147 E6.47829
G1 X105.742 Y81.167 E6.49546
G1 X106.008 Y81.099 E6.50406
G1 X107.151 Y81.47 E6.54174
G1 X108.219 Y81.955 E6.57851
G1 X108.51 Y81.993 E6.58772
G1 X108.953 Y81.934 E6.60175
G1 X109.89 Y81.587 E6.63305
G1 X111.746 Y81.854 E6.69187
G1 X110.087 Y94.335 E7.08665
G1 X110.475 Y108.359 E7.5265
G1 X110.735 Y119.849 E7.88687
G1 X110.231 Y120.231 E7.90669
G1 X101.174 Y119.54 E8.19148
G1 X95.994 Y119.201 E8.35425
G1 X96.114 Y118.923 E8.36373
G1 X95.8 Y118.388 E8.38318
G1 X95.152 Y117.94 E8.40786
G1 X94.883 Y117.606 E8.42132
G1 X94.858 Y117.233 E8.43305
G1 X94.64 Y116.94 E8.44449
G1 X94.403 Y116.856 E8.45239
G1 X94.299 Y116.417 E8.46654
G1 X94.238 Y115.08 E8.50849
G1 X93.879 Y114.194 E8.53849
G1 X93.281 Y113.961 E8.5586
G1 X93.077 Y113.743 E8.56796
G1 X93.063 Y113.358 E8.58002
G1 X92.703 Y112.8 E8.60085
G1 X92.11 Y112.25 E8.6262
G1 X91.974 Y111.872 E8.63879
G1 X92.208 Y111.427 E8.65454
G1 X92.156 Y111.09 E8.66523
G1 X91.884 Y110.845 E8.67672
G1 X91.21 Y110.585 E8.69937
G1 X91.159 Y110.53 E8.70172
G1 X91.264 Y110.369 E8.70777
G1 X91.386 Y109.939 E8.72178
G1 X91.309 Y109.231 E8.74411
G1 X90.96 Y108.638 E8.76568
G1 X90.408 Y108.182 E8.78811
G1 X90.343 Y108.029 E8.79332
G1 X90.569 Y107.845 E8.80248
G1 X90.564 Y107.402 E8.81637
G1 X90.318 Y107.143 E8.82756
G1 X90.426 Y106.836 E8.83775
G1 X90.719 Y106.657 E8.84852
G1 X90.871 Y106.014 E8.86925
G1 X90.71 Y105.329 E8.89128
G1 X90.762 Y104.886 E8.90526
G1 X91.091 Y104.481 E8.92162
G1 X91.21 Y104.211 E8.93088
G1 X90.961 Y102.683 E8.97944
G1 X91.036 Y102.194 E8.99492
G1 X91.395 Y101.965 E9.00828
G1 X91.449 Y101.372 E9.02695
G1 X91.182 Y100.716 E9.04916
G1 X91.199 Y100.421 E9.05843
G1 X91.528 Y100.184 E9.07113
G1 X91.528 Y99.718 E9.08573
G1 X91.192 Y99.412 E9.09999
G1 X91.177 Y99.275 E9.1043
G1 X91.399 Y99.003 E9.11533
G1 X91.55 Y98.564 E9.1299
G1 X91.55 Y98.162 E9.14248
G1 X91.838 Y97.713 E9.15921
G1 X92.335 Y97.391 E9.17779
G1 X92.738 Y96.918 E9.19725
G1 X92.829 Y96.383 E9.21428
G1 X92.757 Y95.979 E9.22715
G1 X92.034 Y95.085 E9.26319
G1 X91.881 Y94.975 E9.26909
G1 X91.828 Y94.837 E9.27373
G1 X91.828 Y94.322 E9.28988
G1 X91.355 Y93.593 E9.31713
G1 X90.469 Y92.82 E9.35399
G1 X89.938 Y91.921 E9.38672
G1 X89.694 Y90.803 E9.42261
G1 X89.391 Y90.02 E9.44895
G1 X89.083 Y89.708 E9.46267
G1 X88.964 Y89.202 E9.47898
G1 X89.007 Y88.316 E9.50677
G1 X88.76 Y87.683 E9.52807
G1 X88.369 Y87.58 E9.54074
G1 X88.327 Y87.264 E9.55074
G1 X88.623 Y86.362 E9.5805
G1 X88.51 Y85.868 E9.59637
G1 X88.347 Y85.69 E9.60394
G1 X88.631 Y85.794 F18000
G1 X89.471 Y86.372
;TYPE:Solid infill
G1 F2400
G1 X89.767 Y86.668 E9.61706
G1 X90.033 Y86.402 E9.62888
G1 X90.034 Y86.402 F18000
G1 F2400
G1 X90.3 Y86.668 E9.6407
G1 X90.034 Y86.935 E9.65252
G1 X90.3 Y87.202 E9.66435
G1 X90.567 Y86.935 E9.67617
G1 X90.833 Y87.202 E9.68799
G1 X90.567 Y87.468 E9.69982
G1 X91.1 Y88.001 E9.72346
G1 X91.367 Y87.735 E9.73528
G1 X91.1 Y87.468 E9.74711
G1 X91.367 Y87.202 E9.75893
G1 X91.633 Y87.468 E9.77075
G1 X91.9 Y87.202 E9.78258
G1 X91.367 Y86.668 E9.80622
G1 X91.1 Y86.935 E9.81805
G1 X90.833 Y86.668 E9.82987
G1 X91.047 Y86.454 E9.83936
G1 X89.208 Y86.694 F18000
G1 F2400
G1 X89.234 Y86.668 E9.84048
G1 X89.767 Y87.202 E9.86413
G1 X89.5 Y87.468 E9.87595
G1 X89.31 Y87.278 E9.88439
G1 E7.88439
G92 E0
G1 X94.596 Y86.638 F18000
G1 E2 F2400
G1 X94.3 Y86.935 E2.01315
G1 X94.033 Y86.668 E2.02497
G1 X94.089 Y86.612 E2.02746
G1 X92.568 Y86.533 F18000
G1 F2400
G1 X92.433 Y86.668 E2.03345
G1 X92.283 Y86.518 E2.04009
G1 X92.061 Y86.507 F18000
G1 F2400
G1 X91.9 Y86.668 E2.04725
G1 X92.7 Y87.468 E2.08272
G1 X92.967 Y87.202 E2.09454
G1 X92.7 Y86.935 E2.10636
G1 X93.075 Y86.559 E2.12301
G1 X93.408 Y86.577 F18000
G1 F2400
G1 X93.5 Y86.668 E2.12707
G1 X93.233 Y86.935 E2.13889
G1 X93.5 Y87.202 E2.15071
G1 X93.766 Y86.935 E2.16254
G1 X94.033 Y87.202 E2.17436
G1 X93.5 Y87.735 E2.19801
G1 X93.233 Y87.468 E2.20983
G1 X92.967 Y87.735 E2.22165
G1 X93.233 Y88.001 E2.23347
G1 X92.7 Y88.535 E2.25712
G1 X92.433 Y88.268 E2.26894
G1 X92.7 Y88.001 E2.28077
G1 X92.167 Y87.468 E2.30441
G1 X91.9 Y87.735 E2.31624
G1 X92.167 Y88.001 E2.32806
G1 X91.9 Y88.268 E2.33988
G1 X91.633 Y88.001 E2.35171
G1 X91.367 Y88.268 E2.36353
G1 X91.9 Y88.801 E2.38717
G1 X92.167 Y88.535 E2.399
G1 X92.433 Y88.801 E2.41082
G1 X91.9 Y89.335 E2.43447
G1 X91.633 Y89.068 E2.44629
G1 X91.367 Y89.335 E2.45811
G1 X91.633 Y89.601 E2.46994
G1 X91.1 Y90.135 E2.49358
G1 X90.833 Y89.868 E2.5054
G1 X91.1 Y89.601 E2.51723
G1 X90.833 Y89.335 E2.52905
G1 X90.567 Y89.601 E2.54087
G1 X90.3 Y89.335 E2.5527
G1 X90.833 Y88.801 E2.57634
G1 X91.1 Y89.068 E2.58817
G1 X91.367 Y88.801 E2.59999
G1 X90.833 Y88.268 E2.62364
G1 X90.567 Y88.535 E2.63546
G1 X90.3 Y88.268 E2.64728
G1 X90.567 Y88.001 E2.6591
G1 X90.034 Y87.468 E2.68275
G1 X89.767 Y87.735 E2.69457
G1 X90.034 Y88.001 E2.7064
G1 X89.767 Y88.268 E2.71822
G1 X89.651 Y88.152 E2.72334
G1 X89.65 Y88.684 F18000
G1 F2400
G1 X89.767 Y88.801 E2.72854
G1 X90.034 Y88.535 E2.74036
G1 X90.3 Y88.801 E2.75218
G1 X89.704 Y89.398 E2.77862
G1 X89.963 Y89.671 F18000
G1 F2400
G1 X90.034 Y89.601 E2.78173
G1 X90.3 Y89.868 E2.79355
G1 X90.112 Y90.056 E2.80188
G1 X90.212 Y90.313 F18000
G1 F2400
G1 X90.3 Y90.401 E2.80579
G1 X90.567 Y90.135 E2.81761
G1 X90.833 Y90.401 E2.82943
G1 X90.381 Y90.854 E2.84951
G1 X90.476 Y91.292 F18000
G1 F2400
G1 X90.567 Y91.201 E2.85353
G1 X90.833 Y91.468 E2.86535
G1 X90.584 Y91.717 E2.87641
G1 X90.633 Y91.801 F18000
G1 F2400
G1 X91.1 Y92.268 E2.89711
G1 X91.367 Y92.001 E2.90894
G1 X91.1 Y91.734 E2.92076
G1 X91.367 Y91.468 E2.93258
G1 X91.633 Y91.734 E2.9444
G1 X91.9 Y91.468 E2.95623
G1 X91.367 Y90.934 E2.97987
G1 X91.1 Y91.201 E2.9917
G1 X90.833 Y90.934 E3.00352
G1 X91.367 Y90.401 E3.02717
G1 X91.633 Y90.668 E3.03899
G1 X91.9 Y90.401 E3.05081
G1 X91.633 Y90.135 E3.06263
G1 X92.167 Y89.601 E3.08628
G1 X92.433 Y89.868 E3.0981
G1 X92.167 Y90.135 E3.10993
G1 X92.433 Y90.401 E3.12175
G1 X92.7 Y90.135 E3.13357
G1 X92.967 Y90.401 E3.1454
G1 X92.433 Y90.934 E3.16904
G1 X92.167 Y90.668 E3.18087
G1 X91.9 Y90.934 E3.19269
G1 X92.7 Y91.734 E3.22816
G1 X92.967 Y91.468 E3.23998
G1 X92.7 Y91.201 E3.2518
G1 X93.233 Y90.668 E3.27545
G1 X93.5 Y90.934 E3.28727
G1 X93.233 Y91.201 E3.2991
G1 X93.5 Y91.468 E3.31092
G1 X93.766 Y91.201 E3.32274
G1 X94.033 Y91.468 E3.33456
G1 X93.5 Y92.001 E3.35821
G1 X93.233 Y91.734 E3.37003
G1 X92.967 Y92.001 E3.38186
G1 X93.233 Y92.268 E3.39368
G1 X92.7 Y92.801 E3.41733
G1 X92.433 Y92.534 E3.42915
G1 X92.7 Y92.268 E3.44097
G1 X92.167 Y91.734 E3.46462
G1 X91.9 Y92.001 E3.47644
G1 X92.167 Y92.268 E3.48826
G1 X91.9 Y92.534 E3.50009
G1 X91.633 Y92.268 E3.51191
G1 X91.367 Y92.534 E3.52373
G1 X91.9 Y93.067 E3.54738
G1 X92.167 Y92.801 E3.5592
G1 X92.433 Y93.067 E3.57103
G1 X92.167 Y93.334 E3.58285
G1 X92.7 Y93.867 E3.60649
G1 X92.967 Y93.601 E3.61832
G1 X92.7 Y93.334 E3.63014
G1 X93.233 Y92.801 E3.65379
G1 X93.5 Y93.067 E3.66561
G1 X93.233 Y93.334 E3.67743
G1 X93.5 Y93.601 E3.68926
G1 X93.766 Y93.334 E3.70108
G1 X94.033 Y93.601 E3.7129
G1 X93.766 Y93.867 E3.72473
G1 X93.5 Y94.134 E3.73655
G1 X93.233 Y93.867 E3.74837
G1 X92.967 Y94.134 E3.76019
G1 X93.5 Y94.667 E3.78384
G1 X93.766 Y94.401 E3.79566
G1 X94.033 Y94.667 E3.80749
G1 X93.766 Y94.934 E3.81931
G1 X94.3 Y95.467 E3.84296
G1 X94.566 Y95.201 E3.85478
G1 X94.3 Y94.934 E3.8666
G1 X94.566 Y94.667 E3.87842
G1 X94.833 Y94.934 E3.89025
G1 X95.1 Y94.667 E3.90207
G1 X94.566 Y94.134 E3.92572
G1 X94.3 Y94.401 E3.93754
G1 X94.033 Y94.134 E3.94936
G1 X94.833 Y93.334 E3.98483
G1 X95.1 Y93.601 E3.99666
G1 X94.833 Y93.867 E4.00848
G1 X95.366 Y94.401 E4.03212
G1 X95.633 Y94.134 E4.04395
G1 X95.366 Y93.867 E4.05577
G1 X95.633 Y93.601 E4.06759
G1 X95.899 Y93.867 E4.07942
G1 X96.166 Y93.601 E4.09124
G1 X95.633 Y93.067 E4.11489
G1 X95.366 Y93.334 E4.12671
G1 X95.1 Y93.067 E4.13853
G1 X95.366 Y92.801 E4.15036
G1 X94.833 Y92.268 E4.174
G1 X94.566 Y92.534 E4.18582
G1 X94.833 Y92.801 E4.19765
G1 X94.3 Y93.334 E4.22129
G1 X94.033 Y93.067 E4.23312
G1 X94.3 Y92.801 E4.24494
G1 X94.033 Y92.534 E4.25676
G1 X93.766 Y92.801 E4.26859
G1 X93.5 Y92.534 E4.28041
G1 X94.033 Y92.001 E4.30405
G1 X94.3 Y92.268 E4.31588
G1 X94.566 Y92.001 E4.3277
G1 X94.3 Y91.734 E4.33952
G1 X94.566 Y91.468 E4.35135
G1 X94.833 Y91.734 E4.36317
G1 X95.1 Y91.468 E4.37499
G1 X94.833 Y91.201 E4.38682
G1 X95.366 Y90.668 E4.41046
G1 X95.633 Y90.934 E4.42229
G1 X95.366 Y91.201 E4.43411
G1 X95.633 Y91.468 E4.44593
G1 X95.899 Y91.201 E4.45775
G1 X96.166 Y91.468 E4.46958
G1 X95.633 Y92.001 E4.49322
G1 X95.366 Y91.734 E4.50505
G1 X95.1 Y92.001 E4.51687
G1 X95.633 Y92.534 E4.54052
G1 X95.899 Y92.268 E4.55234
G1 X96.166 Y92.534 E4.56416
G1 X95.899 Y92.801 E4.57598
G1 X96.433 Y93.334 E4.59963
G1 X96.699 Y93.067 E4.61145
G1 X96.433 Y92.801 E4.62328
G1 X96.699 Y92.534 E4.6351
G1 X96.966 Y92.801 E4.64692
G1 X97.233 Y92.534 E4.65875
G1 X96.699 Y92.001 E4.68239
G1 X96.433 Y92.268 E4.69422
G1 X96.166 Y92.001 E4.70604
G1 X96.966 Y91.201 E4.74151
G1 X97.233 Y91.468 E4.75333
G1 X96.966 Y91.734 E4.76515
G1 X97.499 Y92.268 E4.7888
G1 X97.766 Y92.001 E4.80062
G1 X97.499 Y91.734 E4.81245
G1 X97.766 Y91.468 E4.82427
G1 X98.033 Y91.734 E4.83609
G1 X98.299 Y91.468 E4.84791
G1 X97.766 Y90.934 E4.87156
G1 X97.499 Y91.201 E4.88338
G1 X97.233 Y90.934 E4.89521
G1 X97.499 Y90.668 E4.90703
G1 X96.966 Y90.135 E4.93068
G1 X96.699 Y90.401 E4.9425
G1 X96.966 Y90.668 E4.95432
G1 X96.433 Y91.201 E4.97797
G1 X96.166 Y90.934 E4.98979
G1 X96.433 Y90.668 E5.00161
G1 X96.166 Y90.401 E5.01344
G1 X95.899 Y90.668 E5.02526
G1 X95.633 Y90.401 E5.03708
G1 X96.166 Y89.868 E5.06073
G1 X96.433 Y90.135 E5.07255
G1 X96.699 Y89.868 E5.08438
G1 X96.166 Y89.335 E5.10802
G1 X95.899 Y89.601 E5.11984
G1 X95.633 Y89.335 E5.13167
G1 X95.899 Y89.068 E5.14349
G1 X95.366 Y88.535 E5.16714
G1 X95.1 Y88.801 E5.17896
G1 X95.366 Y89.068 E5.19078
G1 X95.1 Y89.335 E5.20261
G1 X94.833 Y89.068 E5.21443
G1 X94.566 Y89.335 E5.22625
G1 X95.1 Y89.868 E5.2499
G1 X95.366 Y89.601 E5.26172
G1 X95.633 Y89.868 E5.27354
G1 X95.1 Y90.401 E5.29719
G1 X94.833 Y90.135 E5.30901
G1 X94.566 Y90.401 E5.32084
G1 X94.833 Y90.668 E5.33266
G1 X94.3 Y91.201 E5.35631
G1 X94.033 Y90.934 E5.36813
G1 X94.3 Y90.668 E5.37995
G1 X94.033 Y90.401 E5.39177
G1 X93.766 Y90.668 E5.4036
G1 X93.5 Y90.401 E5.41542
G1 X94.033 Y89.868 E5.43907
G1 X94.3 Y90.135 E5.45089
G1 X94.566 Y89.868 E5.46271
G1 X93.766 Y89.068 E5.49818
G1 X93.5 Y89.335 E5.51001
G1 X93.766 Y89.601 E5.52183
G1 X93.233 Y90.135 E5.54547
G1 X92.967 Y89.868 E5.5573
G1 X93.233 Y89.601 E5.56912
G1 X92.967 Y89.335 E5.58094
G1 X92.7 Y89.601 E5.59277
G1 X92.433 Y89.335 E5.60459
G1 X92.967 Y88.801 E5.62824
G1 X93.233 Y89.068 E5.64006
G1 X93.5 Y88.801 E5.65188
G1 X93.233 Y88.535 E5.66371
G1 X93.766 Y88.001 E5.68735
G1 X94.033 Y88.268 E5.69917
G1 X93.766 Y88.535 E5.711
G1 X94.3 Y89.068 E5.73464
G1 X94.566 Y88.801 E5.74647
G1 X94.3 Y88.535 E5.75829
G1 X94.566 Y88.268 E5.77011
G1 X94.833 Y88.535 E5.78194
G1 X95.1 Y88.268 E5.79376
G1 X94.566 Y87.735 E5.8174
G1 X94.3 Y88.001 E5.82923
G1 X94.033 Y87.735 E5.84105
G1 X94.566 Y87.202 E5.8647
G1 X94.833 Y87.468 E5.87652
G1 X95.1 Y87.202 E5.88834
G1 X94.833 Y86.935 E5.90017
G1 X95.101 Y86.667 E5.91205
