; generated by PrusaSlicer 2.4.1+win64 on 2025-04-22 at 18:45:53 UTC

; 

; external perimeters extrusion width = 0.45mm
; perimeters extrusion width = 0.45mm
; infill extrusion width = 0.45mm
; solid infill extrusion width = 0.45mm
; top infill extrusion width = 0.40mm
; first layer extrusion width = 0.42mm

M107
M190 S65 ; set bed temperature and wait for it to be reached
M104 S210 ; set temperature
;TYPE:Custom
G28 ; home all axes
G1 Z5 F5000 ; lift nozzle
M109 S210 ; set temperature and wait for it to be reached
G21 ; set units to millimeters
G90 ; use absolute coordinates
M82 ; use absolute distances for extrusion
G92 E0
; Filament gcode
M107
;LAYER_CHANGE
;Z:0.2
;HEIGHT:0.2
G1 Z.2 F720
G1 E-2 F2400
G92 E0
G1 X82.97 Y81.529 F18000
G1 E2 F2400
;TYPE:Skirt/Brim
;WIDTH:0.42
G1 X84.637 Y80.019 E2.07054
G1 X85.801 Y79.447 E2.1112
G1 X101.753 Y73.548 E2.64445
G1 X102.135 Y73.436 E2.65695
G1 X104.512 Y73.203 E2.73185
G1 X111.435 Y73.833 E2.9498
G1 X113.604 Y74.429 E3.02034
G1 X115.786 Y76.137 E3.10723
G1 X117.086 Y77.853 E3.17473
G1 X118.096 Y79.864 E3.24527
G1 X118.357 Y81.848 E3.30803
G1 X117.322 Y120.124 E4.50857
G1 X116.865 Y122.327 E4.57912
G1 X115.672 Y124.234 E4.64966
G1 X114.801 Y125.032 E4.68669
G1 X114.166 Y125.514 E4.71168
G1 X112.162 Y126.536 E4.78222
G1 X109.858 Y126.794 E4.8549
G1 X95.316 Y125.757 E5.31201
G1 X93.136 Y125.204 E5.38255
G1 X91.283 Y123.928 E5.45309
G1 X90.421 Y122.868 E5.49593
G1 X88.876 Y120.488 E5.58491
G1 X85.147 Y113.232 E5.84069
G1 X84.024 Y109.939 E5.94977
G1 X83.74 Y108.572 E5.99356
G1 X81.764 Y87.849 E6.64625
G1 X81.65 Y85.757 E6.71195
G1 X81.931 Y83.525 E6.78249
G1 X82.946 Y81.576 E6.85138
G1 E4.85138
G92 E0
G1 X88.941 Y86.062 F18000
G1 E2 F2400
;TYPE:Perimeter
G1 X94.922 Y86.372 E2.18776
G1 X102.591 Y86.861 E2.42871
G1 X102.329 Y85.117 E2.484
G1 X101.923 Y83.825 E2.52645
G1 X101.925 Y83.682 E2.53093
G1 X102.08 Y83.281 E2.54442
G1 X102.092 Y83.099 E2.55013
G1 X102.167 Y82.978 E2.5546
G1 X102.583 Y82.672 E2.57078
G1 X103.087 Y82.038 E2.59618
G1 X103.527 Y80.992 E2.63174
G1 X103.637 Y80.583 E2.64505
G1 X103.843 Y80.192 E2.6589
G1 X103.868 Y80.185 E2.65971
G1 X104.09 Y80.305 E2.66761
G1 X105.001 Y81.518 E2.71519
G1 X105.782 Y81.546 E2.73969
G1 X105.995 Y81.492 E2.74657
G1 X107.014 Y81.822 E2.78017
G1 X108.114 Y82.322 E2.81805
G1 X108.511 Y82.373 E2.83058
G1 X109.045 Y82.302 E2.84748
G1 X109.931 Y81.974 E2.8771
G1 X111.324 Y82.174 E2.92121
G1 X109.709 Y94.316 E3.30525
G1 X110.098 Y108.368 E3.74602
G1 X110.353 Y119.665 E4.10031
G1 X110.117 Y119.844 E4.10961
G1 X101.201 Y119.163 E4.38998
G1 X96.512 Y118.857 E4.53732
G1 X96.083 Y118.125 E4.56391
G1 X95.412 Y117.661 E4.5895
G1 X95.251 Y117.462 E4.59751
G1 X95.227 Y117.097 E4.60899
G1 X94.874 Y116.623 E4.62752
G1 X94.722 Y116.569 E4.63257
G1 X94.674 Y116.364 E4.63916
G1 X94.612 Y114.999 E4.68202
G1 X94.167 Y113.901 E4.71915
G1 X93.498 Y113.641 E4.74166
G1 X93.449 Y113.588 E4.74391
G1 X93.436 Y113.24 E4.75482
G1 X92.994 Y112.556 E4.78038
G1 X92.434 Y112.036 E4.80433
G1 X92.385 Y111.9 E4.80885
G1 X92.6 Y111.493 E4.82328
G1 X92.509 Y110.9 E4.84208
G1 X92.085 Y110.518 E4.85997
G1 X91.66 Y110.354 E4.87426
G1 X91.768 Y109.971 E4.88674
G1 X91.675 Y109.109 E4.91391
G1 X91.251 Y108.39 E4.94011
G1 X90.877 Y108.08 E4.95533
G1 X90.948 Y108.022 E4.95823
G1 X90.939 Y107.249 E4.98245
G1 X90.768 Y107.069 E4.99025
G1 X91.05 Y106.896 E5.00062
G1 X91.258 Y106.014 E5.02905
G1 X91.093 Y105.308 E5.05179
G1 X91.124 Y105.039 E5.06027
G1 X91.416 Y104.68 E5.07478
G1 X91.6 Y104.261 E5.08913
G1 X91.342 Y102.681 E5.13932
G1 X91.382 Y102.42 E5.14759
G1 X91.753 Y102.184 E5.16138
G1 X91.833 Y101.315 E5.18872
G1 X91.564 Y100.653 E5.21114
G1 X91.566 Y100.622 E5.21212
G1 X91.905 Y100.377 E5.22525
G1 X91.905 Y99.552 E5.25111
G1 X91.637 Y99.308 E5.26248
G1 X91.734 Y99.189 E5.26727
G1 X91.928 Y98.627 E5.28593
G1 X91.928 Y98.273 E5.29703
G1 X92.112 Y97.985 E5.30774
G1 X92.587 Y97.677 E5.32549
G1 X93.092 Y97.084 E5.34994
G1 X93.211 Y96.382 E5.37226
G1 X93.112 Y95.817 E5.39024
G1 X92.295 Y94.809 E5.4309
G1 X92.205 Y94.744 E5.4344
G1 X92.205 Y94.21 E5.45112
G1 X91.643 Y93.343 E5.48353
G1 X90.763 Y92.576 E5.52014
G1 X90.293 Y91.782 E5.54906
G1 X90.056 Y90.694 E5.58397
G1 X89.714 Y89.81 E5.61368
G1 X89.426 Y89.519 E5.62653
G1 X89.343 Y89.167 E5.63786
G1 X89.387 Y88.254 E5.66651
G1 X89.042 Y87.368 E5.69633
G1 X88.718 Y87.282 E5.70683
G1 X89.014 Y86.38 E5.7366
G1 X88.953 Y86.113 E5.74518
G1 X88.312 Y85.652 F18000
;TYPE:External perimeter
G1 F2400
G1 X94.943 Y85.996 E5.95339
G1 X102.148 Y86.455 E6.17976
G1 X101.96 Y85.202 E6.21948
G1 X101.545 Y83.88 E6.26291
G1 X101.549 Y83.609 E6.2714
G1 X101.708 Y83.199 E6.2852
G1 X101.721 Y82.98 E6.29208
G1 X101.886 Y82.717 E6.30181
G1 X102.319 Y82.399 E6.31866
G1 X102.759 Y81.844 E6.34086
G1 X103.169 Y80.87 E6.374
G1 X103.284 Y80.444 E6.38783
G1 X103.564 Y79.914 E6.40663
G1 X103.644 Y79.858 E6.4097
G1 X103.911 Y79.779 E6.41841
G1 X104.342 Y80.012 E6.43377
G1 X105.195 Y81.147 E6.47829
G1 X105.742 Y81.167 E6.49546
G1 X106.008 Y81.099 E6.50406
G1 X107.151 Y81.47 E6.54174
G1 X108.219 Y81.955 E6.57851
G1 X108.51 Y81.993 E6.58772
G1 X108.953 Y81.934 E6.60175
G1 X109.89 Y81.587 E6.63305
G1 X111.746 Y81.854 E6.69187
G1 X110.087 Y94.335 E7.08665
G1 X110.475 Y108.359 E7.5265
G1 X110.735 Y119.849 E7.88687
G1 X110.231 Y120.231 E7.90669
G1 X101.174 Y119.54 E8.19148
G1 X95.994 Y119.201 E8.35425
G1 X96.114 Y118.923 E8.36373
G1 X95.8 Y118.388 E8.38318
G1 X95.152 Y117.94 E8.40786
G1 X94.883 Y117.606 E8.42132
G1 X94.858 Y117.233 E8.43305
G1 X94.64 Y116.94 E8.44449
G1 X94.403 Y116.856 E8.45239
G1 X94.299 Y116.417 E8.46654
G1 X94.238 Y115.08 E8.50849
G1 X93.879 Y114.194 E8.53849
G1 X93.281 Y113.961 E8.5586
G1 X93.077 Y113.743 E8.56796
G1 X93.063 Y113.358 E8.58002
G1 X92.703 Y112.8 E8.60085
G1 X92.11 Y112.25 E8.6262
G1 X91.974 Y111.872 E8.63879
G1 X92.208 Y111.427 E8.65454
G1 X92.156 Y111.09 E8.66523
G1 X91.884 Y110.845 E8.67672
G1 X91.21 Y110.585 E8.69937
G1 X91.159 Y110.53 E8.70172
G1 X91.264 Y110.369 E8.70777
G1 X91.386 Y109.939 E8.72178
G1 X91.309 Y109.231 E8.74411
G1 X90.96 Y108.638 E8.76568
G1 X90.408 Y108.182 E8.78811
G1 X90.343 Y108.029 E8.79332
G1 X90.569 Y107.845 E8.80248
G1 X90.564 Y107.402 E8.81637
G1 X90.318 Y107.143 E8.82756
G1 X90.426 Y106.836 E8.83775
G1 X90.719 Y106.657 E8.84852
G1 X90.871 Y106.014 E8.86925
G1 X90.71 Y105.329 E8.89128
G1 X90.762 Y104.886 E8.90526
G1 X91.091 Y104.481 E8.92162
G1 X91.21 Y104.211 E8.93088
G1 X90.961 Y102.683 E8.97944
G1 X91.036 Y102.194 E8.99492
G1 X91.395 Y101.965 E9.00828
G1 X91.449 Y101.372 E9.02695
G1 X91.182 Y100.716 E9.04916
G1 X91.199 Y100.421 E9.05843
G1 X91.528 Y100.184 E9.07113
G1 X91.528 Y99.718 E9.08573
G1 X91.192 Y99.412 E9.09999
G1 X91.177 Y99.275 E9.1043
G1 X91.399 Y99.003 E9.11533
G1 X91.55 Y98.564 E9.1299
G1 X91.55 Y98.162 E9.14248
G1 X91.838 Y97.713 E9.15921
G1 X92.335 Y97.391 E9.17779
G1 X92.738 Y96.918 E9.19725
G1 X92.829 Y96.383 E9.21428
G1 X92.757 Y95.979 E9.22715
G1 X92.034 Y95.085 E9.26319
G1 X91.881 Y94.975 E9.26909
G1 X91.828 Y94.837 E9.27373
G1 X91.828 Y94.322 E9.28988
G1 X91.355 Y93.593 E9.31713
G1 X90.469 Y92.82 E9.35399
G1 X89.938 Y91.921 E9.38672
G1 X89.694 Y90.803 E9.42261
G1 X89.391 Y90.02 E9.44895
G1 X89.083 Y89.708 E9.46267
G1 X88.964 Y89.202 E9.47898
G1 X89.007 Y88.316 E9.50677
G1 X88.76 Y87.683 E9.52807
G1 X88.369 Y87.58 E9.54074
G1 X88.327 Y87.264 E9.55074
G1 X88.623 Y86.362 E9.5805
G1 X88.51 Y85.868 E9.59637
G1 X88.347 Y85.69 E9.60394
G1 X88.631 Y85.794 F18000
G1 E7.60394 F2400
G92 E0
G1 X105.496 Y81.649 F18000
G1 E2 F2400
;TYPE:Solid infill
;WIDTH:0.423725
G1 X110.45 Y86.602 E2.22182
G1 X110.513 Y86.127 E2.23701
G1 X106.261 Y81.875 E2.4274
G1 X106.912 Y82.086 E2.44907
G1 X107.093 Y82.168 E2.45536
G1 X110.576 Y85.652 E2.61133
G1 X110.639 Y85.176 E2.62651
G1 X108.063 Y82.601 E2.74185
G1 X108.511 Y82.658 E2.75616
G1 X108.642 Y82.641 E2.76034
G1 X110.702 Y84.701 E2.85259
G1 X110.766 Y84.226 E2.86777
G1 X109.117 Y82.577 E2.9416
G1 X109.51 Y82.431 E2.95487
G1 X110.829 Y83.75 E3.01394
G1 X110.892 Y83.275 E3.02912
G1 X109.903 Y82.286 E3.07341
G1 X109.962 Y82.264 E3.0754
G1 X110.497 Y82.341 E3.09251
G1 X111.106 Y82.951 E3.11981
G1 E1.11981
G92 E0
G1 X110.537 Y87.229 F18000
G1 E2 F2400
G1 X103.934 Y80.625 E2.29569
G1 X103.902 Y80.687 E2.29789
G1 X103.807 Y81.037 E2.30938
G1 X110.323 Y87.553 E2.60116
G1 X110.26 Y88.028 E2.61634
G1 X103.653 Y81.421 E2.9122
G1 X103.494 Y81.8 E2.92522
G1 X110.197 Y88.504 E3.22539
G1 X110.134 Y88.979 E3.24057
G1 X103.334 Y82.18 E3.54505
G1 X103.097 Y82.481 E3.55719
G1 X110.07 Y89.454 E3.86948
G1 X110.007 Y89.93 E3.88466
G1 X102.858 Y82.781 E4.20479
G1 X102.781 Y82.878 E4.20872
G1 X102.571 Y83.032 E4.21697
G1 X109.944 Y90.405 E4.54712
G1 X109.881 Y90.88 E4.5623
G1 X102.355 Y83.354 E4.89931
G1 X102.207 Y83.745 E4.91254
G1 X109.818 Y91.356 E5.25333
G1 X109.754 Y91.831 E5.26852
G1 X102.435 Y84.512 E5.59626
G1 X102.605 Y85.053 E5.61421
G1 X102.635 Y85.25 E5.62052
G1 X109.691 Y92.306 E5.9365
G1 X109.628 Y92.782 E5.95169
G1 X102.73 Y85.884 E6.26058
G1 X102.825 Y86.517 E6.28087
G1 X109.565 Y93.257 E6.58268
G1 X109.502 Y93.732 E6.59786
G1 X102.92 Y87.151 E6.89259
G1 X102.922 Y87.165 E6.89304
G1 X102.36 Y87.129 E6.91088
G1 X109.438 Y94.208 E7.22785
G1 X109.438 Y94.746 E7.2449
G1 X101.785 Y87.093 E7.58763
G1 X101.21 Y87.056 E7.60588
G1 X109.454 Y95.3 E7.97505
G1 X109.469 Y95.854 E7.99259
G1 X100.634 Y87.019 E8.3882
G1 X100.059 Y86.983 E8.40645
G1 X109.484 Y96.408 E8.8285
G1 X109.5 Y96.962 E8.84604
G1 X99.484 Y86.946 E9.29454
G1 X98.909 Y86.909 E9.31278
G1 X109.515 Y97.515 E9.78772
G1 X109.53 Y98.069 E9.80526
G1 X98.334 Y86.873 E10.30664
G1 X97.758 Y86.836 E10.32489
G1 X109.545 Y98.623 E10.8527
G1 X109.561 Y99.177 E10.87025
G1 X97.183 Y86.8 E11.42451
G1 X96.608 Y86.763 E11.44276
G1 X109.576 Y99.731 E12.02346
G1 X109.591 Y100.285 E12.041
G1 X96.033 Y86.726 E12.64814
G1 X95.458 Y86.69 E12.66639
G1 X109.607 Y100.839 E13.29997
G1 X109.622 Y101.392 E13.31752
G1 X94.883 Y86.653 E13.97753
G1 X94.315 Y86.624 E13.99554
G1 X109.637 Y101.946 E14.68167
G1 X109.653 Y102.5 E14.69922
G1 X93.747 Y86.594 E15.41147
G1 X93.179 Y86.565 E15.42948
G1 X109.668 Y103.054 E16.16786
G1 X109.683 Y103.608 E16.1854
G1 X92.611 Y86.535 E16.9499
G1 X92.043 Y86.506 E16.96791
G1 X109.698 Y104.162 E17.75852
G1 X109.714 Y104.715 E17.77607
G1 X91.475 Y86.476 E18.5928
G1 X90.907 Y86.447 E18.61081
G1 X109.729 Y105.269 E19.45367
G1 X109.744 Y105.823 E19.47121
G1 X90.339 Y86.417 E20.34019
G1 X89.771 Y86.388 E20.3582
G1 X109.76 Y106.377 E21.2533
G1 X109.775 Y106.931 E21.27085
G1 X89.29 Y86.445 E22.18818
G1 X89.157 Y86.851 E22.20169
G1 X109.79 Y107.485 E23.12566
G1 X109.806 Y108.038 E23.1432
G1 X89.48 Y87.712 E24.0534
G1 X89.673 Y88.208 E24.07023
G1 X89.662 Y88.433 E24.07738
G1 X109.82 Y108.591 E24.98005
G1 X109.832 Y109.142 E24.9975
G1 X89.637 Y88.947 E25.90183
G1 X89.628 Y89.141 E25.90797
G1 X89.683 Y89.377 E25.91564
G1 X89.956 Y89.654 E25.92796
G1 X90.052 Y89.901 E25.93635
G1 X109.845 Y109.693 E26.82266
G1 X109.857 Y110.244 E26.84011
G1 X90.357 Y90.744 E27.71333
G1 X90.507 Y91.432 E27.73565
G1 X109.87 Y110.795 E28.60272
G1 X109.882 Y111.346 E28.62017
G1 X92.166 Y93.63 E29.4135
G1 X92.488 Y94.127 E29.43224
G1 X92.488 Y94.491 E29.44376
G1 X109.895 Y111.897 E30.22323
G1 X109.907 Y112.448 E30.24068
G1 X93.425 Y95.967 E30.97873
G1 X93.498 Y96.381 E30.99205
G1 X93.47 Y96.549 E30.99747
G1 X109.92 Y112.999 E31.73409
G1 X109.932 Y113.55 E31.75154
G1 X93.392 Y97.01 E32.49222
G1 X93.358 Y97.208 E32.49857
G1 X93.217 Y97.374 E32.50547
G1 X109.944 Y114.101 E33.25453
G1 X109.957 Y114.652 E33.27199
G1 X92.969 Y97.664 E34.0327
G1 X92.775 Y97.892 E34.04217
G1 X92.704 Y97.938 E34.04485
G1 X109.969 Y115.203 E34.81799
G1 X109.982 Y115.754 E34.83544
G1 X92.377 Y98.15 E35.62377
G1 X92.317 Y98.189 E35.62605
G1 X92.21 Y98.355 E35.63231
G1 X92.21 Y98.521 E35.63757
G1 X109.994 Y116.305 E36.43393
G1 X110.007 Y116.856 E36.45139
G1 X92.112 Y98.961 E37.25273
G1 X92.008 Y99.263 E37.26283
G1 X92.188 Y99.427 E37.27056
G1 X92.188 Y99.576 E37.27527
G1 X110.019 Y117.407 E38.07375
G1 X110.032 Y117.958 E38.09121
G1 X92.188 Y100.114 E38.89025
G1 X92.188 Y100.522 E38.90315
G1 X92.112 Y100.577 E38.90613
G1 X110.044 Y118.509 E39.70915
G1 X110.057 Y119.06 E39.7266
G1 X92.02 Y101.023 E40.53429
G1 X92.121 Y101.273 E40.5428
G1 X92.088 Y101.63 E40.55418
G1 X110.01 Y119.552 E41.35672
G1 X109.427 Y119.508 E41.37524
G1 X92.043 Y102.124 E42.1537
G1 X92.022 Y102.348 E42.16083
G1 X91.843 Y102.462 E42.16757
G1 X108.844 Y119.463 E42.92888
G1 X108.261 Y119.419 E42.9474
G1 X91.65 Y102.807 E43.69125
G1 X91.754 Y103.451 E43.7119
G1 X107.678 Y119.374 E44.42495
G1 X107.095 Y119.33 E44.44346
G1 X91.859 Y104.094 E45.12571
G1 X91.893 Y104.298 E45.13224
G1 X91.78 Y104.554 E45.14108
G1 X106.512 Y119.285 E45.80077
G1 X105.929 Y119.241 E45.81928
G1 X91.595 Y104.907 E46.46114
G1 X91.395 Y105.153 E46.47118
G1 X91.386 Y105.236 E46.47382
G1 X105.346 Y119.196 E47.09895
G1 X104.763 Y119.152 E47.11746
G1 X91.525 Y105.914 E47.71023
G1 X91.549 Y106.014 E47.71347
G1 X91.46 Y106.388 E47.72565
G1 X104.18 Y119.107 E48.2952
G1 X103.597 Y119.063 E48.31372
G1 X91.358 Y106.824 E48.86176
G1 X91.299 Y107.076 E48.86996
G1 X91.214 Y107.128 E48.87311
G1 X91.222 Y107.227 E48.87624
G1 X103.013 Y119.018 E49.40426
G1 X102.43 Y118.974 E49.42278
G1 X91.228 Y107.771 E49.92441
G1 X91.231 Y108.006 E49.93184
G1 X91.469 Y108.203 E49.94164
G1 X91.951 Y109.033 E49.97202
G1 X101.847 Y118.929 E50.41516
G1 X101.264 Y118.885 E50.43368
G1 X92.017 Y109.637 E50.84779
G1 X92.056 Y109.995 E50.8592
G1 X92.007 Y110.166 E50.86482
G1 X100.688 Y118.846 E51.25352
G1 X100.111 Y118.809 E51.27181
G1 X92.877 Y111.574 E51.59578
G1 X92.705 Y111.901 E51.60748
G1 X93.212 Y112.373 E51.62942
G1 X93.35 Y112.586 E51.63745
G1 X99.535 Y118.771 E51.91443
G1 X98.959 Y118.733 E51.93271
G1 X94.708 Y114.482 E52.12308
G1 X94.892 Y114.937 E52.13864
G1 X94.905 Y115.218 E52.14754
G1 X98.383 Y118.696 E52.30327
G1 X97.806 Y118.658 E52.32155
G1 X94.931 Y115.782 E52.45033
G1 X94.962 Y116.352 E52.46839
G1 X97.412 Y118.802 E52.57812
;LAYER_CHANGE
;Z:0.4
;HEIGHT:0.2
G1 Z.4 F720
G1 E50.57812 F2400
G92 E0
G1 X88.998 Y86.11 F18000
G1 E2 F2400
;TYPE:Perimeter
;WIDTH:0.45
G1 F10200
G1 X94.919 Y86.417 E2.20068
G1 X102.643 Y86.909 E2.46267
G1 X102.373 Y85.107 E2.52436
G1 X101.968 Y83.818 E2.57007
G1 X101.97 Y83.691 E2.57438
G1 X102.125 Y83.29 E2.58892
G1 X102.136 Y83.113 E2.59492
G1 X102.201 Y83.009 E2.59907
G1 X102.615 Y82.705 E2.61645
G1 X103.126 Y82.061 E2.64429
G1 X103.569 Y81.007 E2.68299
G1 X103.679 Y80.599 E2.69729
G1 X103.87 Y80.237 E2.71115
G1 X104.06 Y80.339 E2.71844
G1 X104.978 Y81.562 E2.77019
G1 X105.787 Y81.591 E2.79759
G1 X105.994 Y81.539 E2.8048
G1 X106.998 Y81.864 E2.84054
G1 X108.102 Y82.366 E2.88158
G1 X108.511 Y82.419 E2.89554
G1 X109.056 Y82.346 E2.91415
G1 X109.936 Y82.02 E2.94591
G1 X111.273 Y82.213 E2.99164
G1 X109.664 Y94.313 E3.40484
G1 X110.053 Y108.369 E3.8808
G1 X110.308 Y119.643 E4.2625
G1 X110.104 Y119.798 E4.27118
G1 X101.204 Y119.118 E4.57329
G1 X96.539 Y118.813 E4.73154
G1 X96.117 Y118.093 E4.75978
G1 X95.443 Y117.628 E4.78752
G1 X95.295 Y117.445 E4.79547
G1 X95.271 Y117.081 E4.80783
G1 X94.902 Y116.585 E4.82874
G1 X94.761 Y116.535 E4.83384
G1 X94.719 Y116.358 E4.83998
G1 X94.657 Y114.989 E4.88637
G1 X94.201 Y113.867 E4.92737
G1 X93.524 Y113.602 E4.95198
G1 X93.493 Y113.57 E4.95349
G1 X93.481 Y113.226 E4.96512
G1 X93.029 Y112.527 E4.99332
G1 X92.473 Y112.01 E5.019
G1 X92.434 Y111.904 E5.02283
G1 X92.646 Y111.501 E5.03825
G1 X92.551 Y110.878 E5.05958
G1 X92.109 Y110.479 E5.07972
G1 X91.714 Y110.327 E5.09404
G1 X91.814 Y109.975 E5.10642
G1 X91.719 Y109.095 E5.13638
G1 X91.286 Y108.36 E5.16525
G1 X90.948 Y108.081 E5.1801
G1 X90.994 Y108.043 E5.18211
G1 X90.984 Y107.231 E5.20959
G1 X90.839 Y107.078 E5.21672
G1 X91.09 Y106.925 E5.22667
G1 X91.304 Y106.014 E5.25836
G1 X91.138 Y105.305 E5.283
G1 X91.167 Y105.057 E5.29144
G1 X91.454 Y104.703 E5.30687
G1 X91.646 Y104.267 E5.32302
G1 X91.388 Y102.681 E5.37742
G1 X91.424 Y102.447 E5.3854
G1 X91.796 Y102.21 E5.40035
G1 X91.879 Y101.309 E5.43098
